!!!COM: Claude Debussy
!!!CNT: Francais
!!!TXO: Francais
!!!OPR: Fe^tes Galantes
!!!ONM: No. 1
!!!OTL: En Sourdine
!!!LYR: Paul Verlaine
!!!ENC: Jacob Pegg
!!!YOR: Claude Debussy: Songs 1880-1904, Edited by Rita Benton
!!!YOR: New York: Dover publications, inc., 1981
!!!YOR: ISBN 0-486-24131-9
!!!ODT: 1891/
!!NB: Vocal melody and text only encoded.
!!NB: First instance of melodic material only encoded.
**kern	**silbe
*clef G2	*
*k[f#c#g#d#a#]	*
*M3/4	*
*MM[lento]	*
!! created: 7/1/03 23:01
!! last edited: 7/17/03 14:32
!! time (min) : input notes 8, words 4.  check : notes 6, words 7.
!! total edit time: about 25 min.
=4	=4
8r	.
{4d#	{Cal-
8d#	-mes
8d#	dans
8d#	le
=5	=5
8d#	de-
8d#	-mi~
4d#}	~jour}
{8d#	{Que
8e#	les
=6	=6
8g#	bran-
8f#	-ches
8d#	hau-
8c#	-tes
16d#}	font,}
{16c#	{Pe/-
16d#	-ne/-
16f#	-trons
=7	=7
4d#	bien
4d#	notre
4d#	a-
=8	=8
4.f#}	-mour}
{8f#	{De
8g#	ce
8a#	si-
=9	=9
8g#	-len-
4f#	-ce
8e#	pro-
4d#}	-fond.}
=10	=10
2.r	.
=11	=11
4r	.
{4g#	{Fon-
8d#	-dons
8g#	nos
=12	=12
8g#	a^-
4f#	-mes,
8g#	nos
12f#}	coeurs,}
{12e	{Et
12g#	nos
=13	=13
4cc#	sens
4b	ex-
4g#	-ta-
=14	=14
4.dd#}	-sie/s,}
{8ee	{Par-
8cc#	-mi
8b	les
=15	=15
12g#	va-
12g#	-gues
12g#	lan-
8f#}	-guers}
{8f#	{Des
8d#	pins
8d#	et
=16	=16
12f#	des
12f#	ar-
12f#	-bou-
2g#}	-siers.}
=17	=17
*M2/4	*
2r	.
=18	=18
*M3/4	*
{12e#	{Fer-
12f#	-me
12g#	tes
4cc#	yeux
8b	a\
8g#	de-
=19	=19
4b}	-mi,}
8r	.
{8b	{Croi-
8g#	-se
8f#	tes
=20	=20
4g#	bras
4dn	sur
4dn	ton
=21	=21
4dn}	sein,}
8r	.
{8e	{Et
8f#	de
8g#	ton
=22	=22
4b	coeur
4g#	en-
4b	-dor-
=23	=23
8ddn}	-mi}
{8cc#	{Chas-
8b	-se a\
8g#	ja-
12f#	-mais
12g#	tout
12b	des-
=24	=24
2f#}	-sein.}
4r	.
=25	=25
2.r	.
=26	=26
{8dn	{Lais-
8dn	-sons~
8dn	~nous
8dn	per-
8dn	-su-
8dn	-a-
=27	=27
2e-}	-der}
{4cn	{Au
=28	=28
12dn	souf-
12e	-fle
12f#	ber-
8g#	-ceur
8f#	et
4an}	doux}
=29	=29
{8gn	{Qui
8gn	vient
8an	a\
8an	tes
8b-	pieds
8gn	ri-
=30	=30
8bn}	-der}
{8bn	{Les
8ccn	on-
8gn	-des
12g#	de
12a#	ga-
12b	-zon
=31	=31
2.ee#}	roux.}
=32	=32
2.r	.
=33	=33
4r	.
{8d#	{Et
8d#	quand
8d#	so-
8e	-len-
=34	=34
8e#	-nel,
8e#	le
8f#}	soir,}
{8f#	{Des
8f#	che^-
8d#	-nes
=35	=35
4en	noirs
8f#	tom-
8g#	-be-
4a}	-ra}
=36	=36
*M4/4	*
4r	.
{8ff#	{Voix
8cc#	de
8an	no-
8f#	-tre
8g#	de/-
8an	-ses-
=37	=37
*M3/4	*
4.cc#}	-poir,}
{8b	{Le
8a	ros-
8g#	-si-
=38	=38
4b	-gnol
4a	chan-
8g#	-te
8e	|
=39	=39
2.d#}	-ra.}
*-	*-
